X: 305650
M: 6/8
L: 1/8
K: C
e2e d2d | c3 zzG | g2g f2f | e3 zg2 |\
c'3 e'd'c' | bag fed | c2c e2e | (d3 c2) H|]
d/e/ |\
f3 fdB | c2e g2g | ^f2a a2f | g2b d'2d |\
f3 fdB | c2e g2g | ^fc'b agf | g3- "^D.C."g2 |]


